X: 021
T: Lady Mary Ramsays Favorite
O: an old REEL
R: reel
M: C|
L: 1/8
Z: 2010 John Chambers <jc:trillian.mit.edu>
B: Abraham Mackintosh "A Collection of Strathspeys, Reels, Jigs &c.", Newcastle, after 1797, p.2
F: http://imslp.info/files/imglnks/usimg/a/a8/IMSLP80796-PMLP164326-Abraham_Mackintosh_coll.pdf
K: F
V: 1
A | [F3A,3]d cAAd | dAdB c>BAf | F<FFd cAAc | dFcA AGG :|
f/g/ | affa geeg | fddf cAA f/g/ | affa geec dfcA AGG ||
f/g/ | affa geeg fddf cAA f/g/ | afge fdcA | dfcA AGG |]
V: 2 clef=bass middle=d
z | f2f2 f2f2 | [a2f2][b2f2] f2f2 | [a2f2][af2]b f2f2 | b2af c'2c :|
z | f2a2 c'2c2 | B2G2 A2F2 | f2a2 c'2cA | B2AF c2C2 |
    f2a2 c'2c2 | d2B2 A2F2 | f2c2 d2A2 | B2AF c2C |]

%%sep 2 1 500

